public/assets/images/step2.svg

<svg width="118" height="100" viewBox="0 0 118 100" fill="none" xmlns="http://www.w3.org/2000/svg">
<circle cx="50" cy="50" r="46.5" stroke="#98A0EF" stroke-width="7"/>
<path d="M99.1667 58V45.5L116 51L99.1667 58Z" fill="#98A0EF" stroke="#98A0EF"/>
<path d="M51.4 61.55C52.7333 61.55 53.8167 61.5 54.65 61.4C55.5167 61.2667 56.15 61.05 56.55 60.75C56.95 60.4167 57.1833 59.95 57.25 59.35L57.75 55.75H60.65V66H37V61.15C38.7667 60.0833 40.4667 59.0333 42.1 58C43.7333 56.9667 45.2333 55.9167 46.6 54.85C47.9667 53.7833 49.1667 52.6833 50.2 51.55C51.2333 50.3833 52.0333 49.1667 52.6 47.9C53.2 46.6 53.5 45.2167 53.5 43.75C53.5 42.3833 53.2833 41.2833 52.85 40.45C52.4167 39.6167 51.8 39 51 38.6C50.2333 38.2 49.2833 38 48.15 38C47.0167 38 45.9833 38.1833 45.05 38.55C44.15 38.9167 43.35 39.4 42.65 40C41.95 40.6 41.3667 41.2667 40.9 42C40.9333 41.6333 41 41.2833 41.1 40.95C41.2 40.5833 41.3333 40.25 41.5 39.95C41.6667 39.65 41.8667 39.4 42.1 39.2C42.3333 39 42.6167 38.8833 42.95 38.85V44.55H37.75V39.6C38.3167 38.9 39.1167 38.2 40.15 37.5C41.2167 36.8 42.45 36.2333 43.85 35.8C45.2833 35.3333 46.85 35.1 48.55 35.1C50.85 35.1 52.8167 35.4333 54.45 36.1C56.0833 36.7667 57.3333 37.75 58.2 39.05C59.0667 40.35 59.5 41.9667 59.5 43.9C59.5 45.4333 59.1 46.9333 58.3 48.4C57.5 49.8333 56.4167 51.2167 55.05 52.55C53.6833 53.8833 52.1333 55.1667 50.4 56.4C48.6667 57.6 46.8333 58.75 44.9 59.85C43 60.9167 41.1333 61.9333 39.3 62.9C39.2 62.8333 39.15 62.7167 39.15 62.55C39.15 62.3833 39.1667 62.2 39.2 62C39.2667 61.8 39.3333 61.65 39.4 61.55H51.4Z" fill="#98A0EF"/>
</svg>

<svg xmlns="http://www.w3.org/2000/svg" width="118" height="100" fill="none"><circle cx="50" cy="50" r="46.5" stroke="#98A0EF" stroke-width="7"/><path fill="#98A0EF" stroke="#98A0EF" d="M99.167 58V45.5L116 51z"/><path fill="#98A0EF" d="M51.4 61.55q2 0 3.25-.15 1.3-.2 1.9-.65.6-.5.7-1.4l.5-3.6h2.9V66H37v-4.85A287 287 0 0 0 42.1 58a56 56 0 0 0 4.5-3.15 29 29 0 0 0 3.6-3.3q1.55-1.75 2.4-3.65.9-1.95.9-4.15 0-2.05-.65-3.3T51 38.6q-1.15-.6-2.85-.6t-3.1.55q-1.35.55-2.4 1.45t-1.75 2q.05-.55.2-1.05.15-.55.4-1t.6-.75a1.5 1.5 0 0 1 .85-.35v5.7h-5.2V39.6q.85-1.05 2.4-2.1 1.6-1.05 3.7-1.7 2.15-.7 4.7-.7 3.45 0 5.9 1t3.75 2.95 1.3 4.85q0 2.3-1.2 4.5-1.2 2.15-3.25 4.15a39 39 0 0 1-4.65 3.85 74 74 0 0 1-5.5 3.45 242 242 0 0 1-5.6 3.05q-.15-.1-.15-.35t.05-.55q.1-.3.2-.45z"/></svg>
